extra/scalable/places/folder-music.svg

<svg width="256" height="256" fill="none" version="1.1" viewBox="0 0 256 256" xmlns="http://www.w3.org/2000/svg">
 <defs>
  <linearGradient id="paint1_linear_2054_566" x1="248" x2="40.837" y1="72" y2="253.48" gradientUnits="userSpaceOnUse">
   <stop stop-color="#979FAD" offset="0"/>
   <stop stop-color="#808080" offset="1"/>
  </linearGradient>
  <linearGradient id="paint0_linear_2053_149" x1="121" x2="121" y1="72.5" y2="40" gradientUnits="userSpaceOnUse">
   <stop stop-color="#484848" offset="0"/>
   <stop stop-color="#636363" offset="1"/>
  </linearGradient>
 </defs>
 <path d="m8 56c0-8.8366 7.1634-16 16-16h71.797c3.3814 0 6.6759 1.0713 9.4109 3.0602l13.584 9.8796c2.735 1.9889 6.029 3.0602 9.411 3.0602h103.8c8.837 0 16 7.1634 16 16v128c0 8.837-7.163 16-16 16h-208c-8.8366 0-16-7.163-16-16z" fill="url(#paint0_linear_2053_149)"/>
 <path d="m8 88c0-8.8366 7.1634-16 16-16h208c8.837 0 16 7.1634 16 16v112c0 8.837-7.163 16-16 16h-208c-8.8366 0-16-7.163-16-16z" fill="url(#paint1_linear_2054_566)"/>
 <path d="m121 95c-3.713 0-7.274 1.475-9.899 4.1005-2.626 2.6255-4.101 6.1865-4.101 9.8995v43.316c-2.239-0.844-4.608-1.289-7-1.316-4.1534 0-8.2135 1.232-11.667 3.539-3.4534 2.308-6.145 5.587-7.7345 9.425-1.5894 3.837-2.0053 8.059-1.195 12.133 0.8103 4.073 2.8104 7.815 5.7473 10.752s6.6787 4.937 10.752 5.747c4.0736 0.811 8.2959 0.395 12.133-1.195 3.838-1.589 7.117-4.281 9.425-7.734 2.307-3.453 3.539-7.514 3.539-11.667v-49h42v29.316c-2.239-0.844-4.608-1.289-7-1.316-4.153 0-8.214 1.232-11.667 3.539-3.453 2.308-6.145 5.587-7.734 9.425-1.59 3.837-2.006 8.059-1.195 12.133 0.81 4.073 2.81 7.815 5.747 10.752s6.679 4.937 10.752 5.747c4.074 0.811 8.296 0.395 12.133-1.195 3.838-1.589 7.117-4.281 9.425-7.734 2.307-3.453 3.539-7.514 3.539-11.667v-63c0-3.713-1.475-7.274-4.101-9.8995-2.625-2.6255-6.186-4.1005-9.899-4.1005h-42z" fill="#fff"/>
</svg>

<svg width="256" height="256" viewBox="0 0 256 256" fill="none" xmlns="http://www.w3.org/2000/svg">
<path d="M8 56C8 47.1634 15.1634 40 24 40H95.7971C99.1785 40 102.473 41.0713 105.208 43.0602L123 56H232C240.837 56 248 63.1634 248 72V200C248 208.837 240.837 216 232 216H24C15.1634 216 8 208.837 8 200V56Z" fill="url(#paint0_linear_2054_566)"/>
<rect x="8" y="72" width="240" height="144" rx="16" fill="url(#paint1_linear_2054_566)"/>
<path d="M121 95C117.287 95 113.726 96.475 111.101 99.1005C108.475 101.726 107 105.287 107 109V152.316C104.761 151.472 102.392 151.027 100 151C95.8466 151 91.7865 152.232 88.333 154.539C84.8796 156.847 82.188 160.126 80.5985 163.964C79.0091 167.801 78.5932 172.023 79.4035 176.097C80.2138 180.17 82.2139 183.912 85.1508 186.849C88.0877 189.786 91.8295 191.786 95.9031 192.596C99.9767 193.407 104.199 192.991 108.036 191.401C111.874 189.812 115.153 187.12 117.461 183.667C119.768 180.214 121 176.153 121 172V123H163V152.316C160.761 151.472 158.392 151.027 156 151C151.847 151 147.786 152.232 144.333 154.539C140.88 156.847 138.188 160.126 136.599 163.964C135.009 167.801 134.593 172.023 135.404 176.097C136.214 180.17 138.214 183.912 141.151 186.849C144.088 189.786 147.83 191.786 151.903 192.596C155.977 193.407 160.199 192.991 164.036 191.401C167.874 189.812 171.153 187.12 173.461 183.667C175.768 180.214 177 176.153 177 172V109C177 105.287 175.525 101.726 172.899 99.1005C170.274 96.475 166.713 95 163 95H121Z" fill="white"/>
<defs>
<linearGradient id="paint0_linear_2054_566" x1="128" y1="40" x2="128" y2="216" gradientUnits="userSpaceOnUse">
<stop stop-color="#636363"/>
<stop offset="0.2" stop-color="#484848"/>
<stop offset="1" stop-color="#484848"/>
</linearGradient>
<linearGradient id="paint1_linear_2054_566" x1="248" y1="72" x2="40.837" y2="253.483" gradientUnits="userSpaceOnUse">
<stop stop-color="#979FAD"/>
<stop offset="1" stop-color="#808080"/>
</linearGradient>
</defs>
</svg>
